chat/images/apps/snapchat.svg

<?xml version="1.0" encoding="UTF-8" standalone="no"?>
<svg width="26px" height="26px" viewBox="0 0 26 26" version="1.1" xmlns="http://www.w3.org/2000/svg" xmlns:xlink="http://www.w3.org/1999/xlink" xmlns:sketch="http://www.bohemiancoding.com/sketch/ns">
    <!-- Generator: Sketch 3.4.4 (17249) - http://www.bohemiancoding.com/sketch -->
    <title>Snapchat</title>
    <desc>Created with Sketch.</desc>
    <defs></defs>
    <g id="Page-1" stroke="none" stroke-width="1" fill="none" fill-rule="evenodd" sketch:type="MSPage">
        <g id="Snapchat" sketch:type="MSArtboardGroup">
            <circle id="Oval-59" fill="#FFFC00" sketch:type="MSShapeGroup" cx="13" cy="13" r="12"></circle>
            <path d="M12.9123569,20.682657 C12.8680644,20.682657 12.825804,20.6809281 12.7936629,20.6792879 C12.7681574,20.6816374 12.7418224,20.682657 12.715446,20.682657 C11.7849301,20.682657 11.1627613,20.2124503 10.6137084,19.797257 C10.220177,19.5001141 9.84904058,19.2195949 9.41424408,19.1422836 C9.20070277,19.1044259 8.98828121,19.0852311 8.78303437,19.0852311 C8.4132251,19.0852311 8.1209692,19.1465393 7.90759377,19.1911351 C7.7762922,19.2184866 7.66307259,19.2420258 7.57556585,19.2420258 C7.48391188,19.2420258 7.37255852,19.2203041 7.32615092,19.0509198 C7.28936492,18.9173097 7.26298848,18.7878665 7.23752444,18.663211 C7.17382285,18.3517052 7.12762261,18.1615745 7.01850877,18.1435323 C5.85143435,17.9510521 5.16187299,17.6675184 5.02451645,17.3241395 C5.01012553,17.288055 5.00207989,17.2517488 5.00029658,17.2158417 C4.99494664,17.1134841 5.06254663,17.0237161 5.15693778,17.0070038 C6.08376266,16.84387 6.90786044,16.3202459 7.60646278,15.450184 C8.14763594,14.7765921 8.41339099,14.1330114 8.44192399,14.0619507 C8.44316817,14.058759 8.4446197,14.0553899 8.44611271,14.0523311 C8.58077354,13.7602861 8.6075647,13.5079163 8.52598852,13.3024475 C8.37560965,12.923383 7.87756777,12.7544863 7.54806966,12.6427308 C7.46612023,12.6150246 7.38860834,12.5887814 7.32685595,12.5625824 C7.03476594,12.4392568 6.55439129,12.178686 6.61838319,11.819038 C6.66499815,11.5567827 6.98951957,11.3741437 7.25179094,11.3741437 C7.32461645,11.3741437 7.38914748,11.3877973 7.4434763,11.4150601 C7.73983797,11.5634765 8.00646394,11.6387042 8.23576476,11.6387042 C8.52092889,11.6387042 8.65865868,11.5226487 8.69196101,11.4896673 C8.68374948,11.3270654 8.67371316,11.1551543 8.66400862,10.9925524 C8.66400862,10.9923751 8.66380126,10.9904246 8.66380126,10.9904246 C8.59686483,9.85225588 8.51338092,8.43582876 8.85233473,7.62357306 C9.86683223,5.1922142 12.0182952,5.00314742 12.6533204,5.00314742 C12.6702411,5.00314742 12.9301071,5.00039897 12.9301071,5.00039897 C12.9418438,5.00017732 12.9545758,5 12.967764,5 C13.604531,5 15.760473,5.18928843 16.7755926,7.62211017 C17.1145464,8.43489783 17.0309795,9.85252186 16.9638357,10.9918875 L16.9606838,11.0464132 C16.951477,11.2011243 16.9429751,11.3475458 16.9358004,11.48949 C16.9671535,11.5203435 17.0931881,11.6267351 17.3496119,11.6375073 C17.5682128,11.6285527 17.8194111,11.5536796 18.0960319,11.4152375 C18.1815479,11.3723262 18.2762294,11.3634159 18.3405116,11.3634159 C18.4376814,11.3634159 18.5365516,11.3836303 18.6189572,11.4203797 L18.6233533,11.4221973 C18.858087,11.5112559 19.0118251,11.6892402 19.0151429,11.8762235 C19.0180874,12.0505284 18.8969051,12.3110549 18.300864,12.5626711 C18.2398166,12.5885154 18.1619315,12.614936 18.0796503,12.6428195 C17.7498619,12.754708 17.2522347,12.923516 17.1018558,13.3023589 C17.0201552,13.5078277 17.0470293,13.7601088 17.1817317,14.0520651 C17.1832247,14.0552569 17.1845103,14.058493 17.1859618,14.061862 C17.2274342,14.1657712 18.2312733,16.6123795 20.4709481,17.0067821 C20.5652977,17.0235831 20.6330221,17.1134397 20.6276307,17.21562 C20.6256401,17.2523251 20.6173456,17.2890302 20.6028302,17.3248931 C20.4664276,17.6663659 19.7769077,17.9495006 18.6095015,18.1422467 C18.4999314,18.1603333 18.4537727,18.3496217 18.3906517,18.6594873 C18.3645241,18.7874676 18.3379403,18.912921 18.301652,19.044758 C18.2676861,19.1687485 18.1921234,19.2293474 18.0707752,19.2293474 L18.0524859,19.2293474 C17.973481,19.2293474 17.861547,19.2140093 17.720375,19.1844856 C17.4736143,19.1331517 17.1968691,19.0853641 16.8449344,19.0853641 C16.639729,19.0853641 16.427349,19.1046033 16.2135588,19.1424166 C15.7792185,19.2197279 15.4081236,19.4998038 15.0152972,19.7966364 C14.465166,20.212406 13.8427899,20.682657 12.9123569,20.682657" id="Shape" fill="#FFFFFF" sketch:type="MSShapeGroup"></path>
            <path d="M13.155333,5.40065312 C13.7548163,5.40065312 15.8191458,5.57278589 16.7919636,7.90404797 C17.1122963,8.67170785 17.030181,10.0622907 16.9643228,11.1793584 C16.9540377,11.3566334 16.9438355,11.5284559 16.935541,11.6925206 L16.9320573,11.7630494 L16.976101,11.8155803 C16.9938926,11.8366813 17.1604043,12.0226893 17.5307527,12.0379831 L17.5367247,12.0383377 L17.5429455,12.0382047 C17.7877985,12.0282305 18.0635899,11.9469296 18.3631034,11.7969617 C18.4072301,11.7748855 18.465955,11.7641133 18.5280806,11.7641133 C18.598874,11.7641133 18.6741049,11.7783432 18.7361476,11.806271 L18.7455203,11.8102607 C18.9025762,11.8690864 19.0135978,11.9799997 19.0152982,12.0803624 C19.0162106,12.1371046 18.9765215,12.3415095 18.4197962,12.5765907 C18.3653844,12.5995535 18.2937616,12.6239793 18.2107339,12.6519514 C17.8484311,12.7749224 17.3010786,12.9604871 17.1168582,13.4244876 C17.0131358,13.6858563 17.0415444,13.9943034 17.2012131,14.34114 C17.2669053,14.5050275 18.3010608,16.9949461 20.6281178,17.4048198 C20.6276616,17.4166115 20.6248415,17.4295115 20.6186206,17.4447166 C20.5791804,17.5440155 20.3284798,17.8870841 18.7684545,18.1443745 C18.5243481,18.1843601 18.4645449,18.4768484 18.3952031,18.8168583 C18.3701538,18.938588 18.3446897,19.0614703 18.309687,19.1883867 C18.2989871,19.226732 18.2969965,19.2289041 18.2585516,19.2289041 L18.2402208,19.2289041 C18.1710448,19.2289041 18.0660367,19.213566 17.9443153,19.188032 C17.7226454,19.1418847 17.419814,19.0852754 17.0326693,19.0852754 C16.8165982,19.0852754 16.5940159,19.1053569 16.3706871,19.1452094 C15.8932984,19.2300567 15.5050754,19.5235646 15.0939182,19.8342281 C14.5417549,20.2512833 13.9710534,20.6828343 13.1002991,20.6828343 C13.062269,20.6828343 13.0251512,20.6814601 12.9879505,20.6794652 L12.978163,20.6790219 L12.968334,20.6798199 C12.9469757,20.6818147 12.9254516,20.6828343 12.9034712,20.6828343 C12.0328414,20.6828343 11.4618911,20.2514163 10.9099766,19.8342281 C10.4987364,19.5235646 10.110306,19.2300567 9.63300032,19.1452094 C9.40987889,19.1054899 9.18708923,19.0852754 8.97114252,19.0852754 C8.58408074,19.0852754 8.28087613,19.1485785 8.05966242,19.1948145 C7.93794097,19.2202598 7.83255964,19.2420701 7.76359106,19.2420701 C7.70710567,19.2420701 7.70602739,19.2385237 7.69408334,19.1949031 C7.65908065,19.0678981 7.63349218,18.9420901 7.60856728,18.8205376 C7.53905956,18.4801731 7.47921491,18.1860889 7.23523286,18.1460591 C5.67533201,17.888547 5.42458997,17.5449021 5.38502531,17.4458692 C5.37884592,17.4302651 5.37606727,17.4169662 5.37544519,17.4051744 C7.70246076,16.9956553 8.73640881,14.5056481 8.80230844,14.34114 C8.96226743,13.9945693 8.99063454,13.6861666 8.88658032,13.4244876 C8.70235999,12.9607531 8.15509038,12.7749224 7.79303645,12.6521731 C7.70980137,12.6240236 7.63813709,12.5995535 7.58368385,12.5765907 C7.11355288,12.3780373 6.96893867,12.1780211 6.99042137,12.0568233 C7.01534627,11.9170513 7.24203433,11.7749298 7.43985761,11.7749298 C7.48431601,11.7749298 7.52330005,11.7825989 7.55212336,11.7970061 C7.87340994,11.9579677 8.16670265,12.039579 8.42395586,12.039579 C8.82835309,12.039579 9.00834325,11.8384545 9.02766938,11.8154916 L9.07150569,11.7630937 L9.06798054,11.6929196 C9.05981048,11.5289435 9.04973269,11.3571654 9.03911576,11.180245 C8.97346497,10.0629113 8.89134965,8.6732594 9.21155794,7.90555519 C10.1807676,5.58284877 12.2350193,5.40380053 12.8414285,5.40380053 C12.8563586,5.40380053 13.1199985,5.40091909 13.1199985,5.40091909 C13.1307814,5.40083043 13.1427669,5.40065312 13.155333,5.40065312 M13.155333,5 L13.154628,5 C13.1408177,5 13.1278368,5 13.115478,5.00017732 C13.0169397,5.00124124 12.8549485,5.00292577 12.8403917,5.00310309 C12.4851392,5.00310309 11.774344,5.0567422 11.0108374,5.4169665 C10.5742991,5.62278996 10.1816385,5.90109271 9.84380446,6.24416136 C9.44102465,6.65292683 9.11289513,7.15691281 8.86870572,7.74233271 C8.51108934,8.59949454 8.59598332,10.0432732 8.66416392,11.2035181 L8.66441275,11.2053357 C8.67171189,11.3295922 8.67938428,11.4593457 8.68639312,11.5857744 C8.63393055,11.61153 8.54887068,11.6387042 8.42349966,11.6387042 C8.22177798,11.6387042 7.9819017,11.5697713 7.71071377,11.4339447 C7.6309209,11.3942251 7.53984754,11.3741437 7.43935995,11.3741437 C7.27790795,11.3741437 7.10770528,11.4249457 6.96006358,11.5177281 C6.77430876,11.6343155 6.65428768,11.7990896 6.62169038,11.9817729 C6.60020769,12.102616 6.6012445,12.3414652 6.84945673,12.5836834 C6.98598382,12.7170276 7.18654428,12.8399986 7.44541491,12.9493603 C7.51334668,12.9779531 7.593969,13.0052603 7.67936064,13.0342076 C7.97568084,13.1348807 8.42416322,13.2869764 8.54111535,13.5811936 C8.60037939,13.7303635 8.57487387,13.926656 8.46551119,14.1639093 C8.46264959,14.1703815 8.459788,14.1767207 8.45717524,14.1833701 C8.42984494,14.2515938 8.17487271,14.8689312 7.65186445,15.5200035 C7.35467333,15.8902464 7.02733179,16.1996687 6.67946142,16.4399364 C6.25486713,16.733267 5.79543604,16.9250379 5.31406606,17.0097966 C5.12503492,17.0429553 4.99004231,17.2229788 5.00057629,17.427561 C5.00381114,17.4865197 5.01675052,17.5453011 5.03918708,17.6021762 C5.03935297,17.6025309 5.03956034,17.6028855 5.03972622,17.6031958 C5.11615983,17.7943018 5.29337134,17.9566377 5.58148,18.0998231 C5.93353909,18.2746156 6.4600725,18.4216577 7.14631607,18.5366936 C7.18098698,18.6071781 7.21698501,18.7843201 7.24190992,18.9056066 C7.26799605,19.0345178 7.29520193,19.167064 7.33397861,19.3078556 C7.37582425,19.4603946 7.48435748,19.6426789 7.76317633,19.6426789 C7.86884797,19.6426789 7.99036206,19.6172336 8.13107787,19.5880645 C8.33715415,19.5448429 8.61895902,19.4858842 8.97068632,19.4858842 C9.16568948,19.4858842 9.36778442,19.5042368 9.57120647,19.5403656 C9.96332788,19.6101408 10.3013693,19.865392 10.6924954,20.1609834 C11.2649802,20.593554 11.9129862,21.0831771 12.9030565,21.0831771 C12.930055,21.0831771 12.9571365,21.0822462 12.9838862,21.0802513 C13.0166079,21.0818915 13.0571679,21.0831771 13.0999674,21.0831771 C14.0903279,21.0831771 14.7381681,20.5933767 15.3100308,20.1611607 L15.3109432,20.1602741 C15.7021522,19.8650374 16.0398204,19.6101408 16.4318174,19.5403656 C16.6351565,19.5042811 16.83721,19.4858842 17.0322961,19.4858842 C17.3683053,19.4858842 17.6343507,19.531677 17.8719045,19.5811934 C18.0269283,19.6138202 18.1474056,19.6295129 18.2398475,19.6295129 L18.2488885,19.6296902 L18.2582613,19.6296902 C18.462181,19.6296902 18.6120207,19.510044 18.6692111,19.3006742 C18.7071998,19.1628527 18.7343228,19.0334095 18.7610725,18.9023262 C18.7843799,18.7886645 18.8216221,18.6064688 18.8562931,18.5352308 C19.5429928,18.4199732 20.0693189,18.2732414 20.4214194,18.0984932 C20.7088645,17.9559727 20.8858687,17.7938142 20.9627585,17.6035061 C20.9858171,17.5464536 20.9992957,17.4873176 21.0023231,17.4271177 C21.0131474,17.2228901 20.8779475,17.042512 20.6887919,17.0093533 C18.5494389,16.6324609 17.5856621,14.282802 17.5458071,14.1829712 C17.5432358,14.1764104 17.5403328,14.1698939 17.5373053,14.1635547 C17.4279426,13.9262127 17.4026859,13.7301418 17.4619914,13.5807059 C17.5786947,13.2867547 18.0268868,13.1346591 18.3234144,13.0340303 C18.4092622,13.0051273 18.4901748,12.9776428 18.5575675,12.949183 C18.8494916,12.825946 19.0581392,12.6922472 19.195786,12.5404175 C19.3601825,12.3594188 19.3921992,12.1860004 19.3902086,12.072516 C19.3851904,11.797937 19.1888186,11.5539455 18.8764486,11.4344766 C18.7709429,11.3878416 18.6506315,11.3632386 18.5281221,11.3632386 C18.4447211,11.3632386 18.3212163,11.3754736 18.2043057,11.4338117 C17.9540198,11.5589991 17.7298201,11.6274444 17.5373468,11.637197 C17.4349929,11.6316558 17.3632042,11.6079393 17.3167137,11.5852867 C17.3225613,11.4781858 17.329031,11.3681592 17.335708,11.2534335 L17.3384867,11.2043161 C17.4070405,10.0433175 17.4922248,8.59843062 17.1344425,7.74064817 C16.8892163,7.15314477 16.5599256,6.64787323 16.1555283,6.23822116 C15.8163672,5.89493086 15.4223795,5.61667244 14.9842652,5.41098197 C14.2218369,5.05341746 13.5110831,5 13.155333,5" id="Shape" fill="#020202" sketch:type="MSShapeGroup"></path>
        </g>
    </g>
</svg>

<svg viewBox="0 0 26 26" xmlns="http://www.w3.org/2000/svg"><title>Snapchat</title><g fill="none" fill-rule="evenodd"><circle fill="#FFFC00" cx="13" cy="13" r="12"/><path d="M12.912 20.683c-.044 0-.086-.002-.118-.004-.026.002-.052.003-.08.003-.93 0-1.55-.47-2.1-.886-.394-.297-.765-.577-1.2-.655-.213-.038-.426-.057-.63-.057-.37 0-.663.062-.876.106-.132.028-.245.052-.332.052-.092 0-.203-.022-.25-.19-.037-.135-.063-.264-.088-.39-.064-.31-.11-.5-.22-.518-1.167-.193-1.856-.476-1.993-.82-.015-.036-.023-.072-.025-.108-.005-.103.063-.192.157-.21.927-.162 1.75-.686 2.45-1.556.54-.673.806-1.317.835-1.388 0-.003.003-.007.004-.01.135-.292.162-.544.08-.75-.15-.38-.648-.548-.978-.66-.082-.027-.16-.053-.22-.08-.293-.123-.774-.383-.71-.743.047-.263.372-.446.634-.446.073 0 .137.014.19.04.298.15.564.225.794.225.285 0 .423-.117.456-.15-.008-.163-.018-.335-.028-.497v-.003c-.067-1.138-.15-2.554.188-3.366 1.015-2.432 3.166-2.62 3.8-2.62L12.93 5h.038c.637 0 2.792.19 3.808 2.622.34.813.255 2.23.188 3.37l-.003.054c-.01.155-.017.302-.024.443.03.03.157.137.414.148.218-.01.47-.084.746-.223.086-.043.18-.052.245-.052.098 0 .197.02.28.057l.003.002c.235.09.39.267.392.454.003.175-.118.435-.714.687-.06.026-.138.052-.22.08-.33.112-.828.28-.978.66-.082.205-.055.457.08.75l.004.01c.04.103 1.045 2.55 3.285 2.944.095.017.163.106.158.21-.002.035-.01.072-.025.108-.137.34-.826.625-1.993.817-.11.018-.156.208-.22.517-.025.127-.052.253-.088.385-.034.124-.11.184-.23.184h-.02c-.08 0-.19-.016-.332-.046-.246-.05-.523-.1-.875-.1-.205 0-.418.02-.63.058-.436.078-.807.358-1.2.655-.55.415-1.172.886-2.103.886" fill="#FFF"/><path d="M13.155 5.4c.6 0 2.664.173 3.637 2.504.32.768.238 2.158.172 3.275-.01.177-.02.348-.028.513l-.004.07.044.053c.018.02.184.207.555.222H17.544c.245-.01.52-.09.82-.24.044-.023.103-.034.165-.034.07 0 .146.014.208.042l.01.004c.157.06.268.17.27.27 0 .057-.04.262-.596.497-.055.023-.126.047-.21.075-.362.123-.91.308-1.093.772-.104.262-.075.57.084.917.067.165 1.1 2.655 3.428 3.065 0 .012-.003.025-.01.04-.04.1-.29.442-1.85.7-.244.04-.303.332-.373.672-.025.122-.05.244-.085.37-.01.04-.013.042-.05.042h-.02c-.07 0-.174-.016-.296-.042-.22-.046-.524-.103-.91-.103-.217 0-.44.02-.663.06-.477.085-.865.38-1.276.69-.552.416-1.123.848-1.994.848-.038 0-.075-.002-.112-.004h-.02c-.02.002-.043.003-.065.003-.87 0-1.44-.432-1.993-.85-.41-.31-.8-.603-1.277-.688-.223-.04-.446-.06-.662-.06-.386 0-.69.064-.91.11-.122.025-.227.047-.296.047-.057 0-.058-.003-.07-.047-.035-.127-.06-.253-.085-.374-.07-.34-.13-.634-.375-.674-1.56-.257-1.81-.6-1.85-.7-.006-.016-.01-.03-.01-.04 2.327-.41 3.36-2.9 3.427-3.065.16-.345.19-.654.085-.916-.185-.463-.732-.65-1.094-.772-.083-.028-.155-.052-.21-.075-.47-.2-.614-.4-.593-.52.025-.14.252-.282.45-.282.044 0 .083.008.112.022.32.16.615.243.872.243.404 0 .584-.202.604-.225l.044-.052-.004-.07c-.008-.164-.018-.336-.03-.513-.065-1.117-.147-2.507.174-3.274.97-2.323 3.023-2.502 3.63-2.502l.278-.003h.035m0-.4h-.04c-.098 0-.26.003-.275.003-.355 0-1.066.054-1.83.414-.436.206-.828.484-1.166.827-.403.41-.73.913-.975 1.498-.36.857-.274 2.3-.206 3.462l.022.382c-.052.026-.137.053-.263.053-.2 0-.44-.07-.712-.206-.08-.04-.17-.06-.27-.06-.162 0-.332.05-.48.144-.186.116-.306.28-.338.464-.022.12-.02.36.227.602.136.133.337.256.595.365.068.028.15.055.234.084.296.1.744.253.86.547.06.15.035.347-.074.584l-.01.02c-.026.068-.28.685-.804 1.336-.297.37-.625.68-.973.92-.425.293-.885.485-1.366.57-.19.033-.324.213-.313.418.004.06.017.117.04.174.076.192.253.355.54.498.354.175.88.322 1.566.437.035.07.07.247.096.37.026.128.053.26.092.4.042.153.15.336.43.336.105 0 .226-.026.367-.055.207-.043.49-.102.84-.102.196 0 .398.018.6.054.393.07.73.325 1.122.62.573.434 1.22.923 2.21.923.028 0 .055 0 .082-.003.033.002.073.003.116.003.99 0 1.638-.49 2.21-.922.392-.295.73-.55 1.122-.62.203-.036.405-.054.6-.054.336 0 .602.046.84.095.155.034.275.05.368.05H18.258c.204 0 .354-.12.41-.33.04-.137.066-.267.093-.398.024-.113.062-.296.096-.367.687-.115 1.213-.262 1.565-.437.29-.142.466-.304.543-.494.023-.058.036-.117.04-.177.01-.204-.125-.384-.314-.418-2.14-.378-3.104-2.727-3.144-2.827l-.01-.02c-.108-.237-.133-.433-.074-.582.117-.293.565-.445.86-.546.087-.03.168-.056.236-.085.29-.124.5-.258.638-.41.164-.18.196-.354.194-.467-.005-.275-.2-.52-.514-.64-.105-.045-.225-.07-.348-.07-.083 0-.207.012-.324.07-.25.126-.474.194-.667.204-.102-.005-.174-.03-.22-.052.006-.107.012-.217.02-.332v-.05c.07-1.16.155-2.605-.203-3.462-.245-.587-.574-1.092-.978-1.502-.34-.343-.734-.62-1.172-.827-.762-.357-1.473-.41-1.83-.41" fill="#020202"/></g></svg>
